Papirus/64x64/apps/com.github.danrabbit.nimbus.svg

<svg xmlns="http://www.w3.org/2000/svg" width="64" height="64" version="1.1">
 <path style="opacity:.2" d="m4.043 31.828a28 28 0 0 0 -0.043 1.172 28 28 0 0 0 28 28 28 28 0 0 0 28 -28 28 28 0 0 0 -0.042 -0.828 28 28 0 0 1 -27.958 26.828 28 28 0 0 1 -27.956 -27.172z"/>
 <path style="fill:#2baee1" d="m32 4a28 28 0 0 0 -28 28 28 28 0 0 0 28 28 28 28 0 0 0 28 -28 28 28 0 0 0 -28 -28z"/>
 <path style="opacity:.2;fill:#ffffff" d="m31.998047 4a28 28 0 0 0 -27.998047 28 28 28 0 0 0 0.0214844 0.40625 28 28 0 0 1 27.9765626 -27.40625h0.001953a28 28 0 0 1 27.976562 27.585938 28 28 0 0 0 0.021485 -0.585938 28 28 0 0 0 -27.998047 -28h-0.001953z"/>
 <path style="opacity:.2" d="m35.063836 19.000002c-3.410058 0-6.363298 1.929396-7.827132 4.72974-0.948768-0.595626-2.071906-0.94593-3.27926-0.94593-3.384202 0-6.127646 2.710438-6.127646 6.05405 0 0.531582 0.08514 1.045876 0.215416 1.537124-2.444176 1.628742-4.045214 4.39961-4.045214 7.543898 0 5.030912 4.099404 9.081116 9.191488 9.081116h17.617034c5.092084 0 9.191478-4.050204 9.191478-9.081116 0-4.017388-2.625044-7.404426-6.271284-8.608102 0.0989-0.522122 0.14364-1.05755 0.14364-1.60805 0-4.806422-3.943696-8.702732-8.808504-8.702732z"/>
 <path style="fill:#ffffff" d="m35.063836 18.000002c-3.410058 0-6.363298 1.929396-7.827132 4.72974-0.948768-0.595626-2.071906-0.94593-3.27926-0.94593-3.384202 0-6.127646 2.710438-6.127646 6.05405 0 0.531582 0.08514 1.045876 0.215416 1.537124-2.444176 1.628742-4.045214 4.39961-4.045214 7.543898 0 5.030912 4.099404 9.081116 9.191488 9.081116h17.617034c5.092084 0 9.191478-4.050204 9.191478-9.081116 0-4.017388-2.625044-7.404426-6.271284-8.608102 0.0989-0.522122 0.14364-1.05755 0.14364-1.60805 0-4.806422-3.943696-8.702732-8.808504-8.702732z"/>
</svg>

<?xml version="1.0" encoding="UTF-8" standalone="no"?>
<svg
   id="_图层_1"
   version="1.1"
   viewBox="0 0 64 64" width="64" height="64"
   sodipodi:docname="com.github.danrabbit.nimbus.svg"
   xml:space="preserve"
   inkscape:version="1.4 (e7c3feb100, 2024-10-09)"
   xmlns:inkscape="http://www.inkscape.org/namespaces/inkscape"
   xmlns:sodipodi="http://sodipodi.sourceforge.net/DTD/sodipodi-0.dtd"
   xmlns="http://www.w3.org/2000/svg"
   xmlns:svg="http://www.w3.org/2000/svg"><sodipodi:namedview
     id="namedview26"
     pagecolor="#505050"
     bordercolor="#eeeeee"
     borderopacity="1"
     inkscape:showpageshadow="0"
     inkscape:pageopacity="0"
     inkscape:pagecheckerboard="0"
     inkscape:deskcolor="#505050"
     inkscape:zoom="8.453125"
     inkscape:cx="31.94085"
     inkscape:cy="33.833641"
     inkscape:window-width="1920"
     inkscape:window-height="939"
     inkscape:window-x="0"
     inkscape:window-y="34"
     inkscape:window-maximized="1"
     inkscape:current-layer="_图层_1" /><!-- Generator: Adobe Illustrator 29.0.1, SVG Export Plug-In . SVG Version: 2.1.0 Build 192)  --><defs
     id="defs6"><style
       id="style1">
      .st0 {
        fill-opacity: .5;
      }

      .st0, .st1, .st2, .st3, .st4, .st5, .st6, .st7 {
        fill: #fff;
      }

      .st8 {
        fill: #133c9a;
      }

      .st2, .st9 {
        display: none;
      }

      .st3 {
        fill-opacity: .2;
      }

      .st4 {
        fill-opacity: .9;
      }

      .st10 {
        fill: #3370ff;
      }

      .st11 {
        fill: url(#_未命名的渐变_3);
      }

      .st12 {
        fill: url(#_未命名的渐变);
      }

      .st5 {
        fill-opacity: .3;
      }

      .st6 {
        fill-opacity: 0;
      }

      .st7 {
        fill-opacity: .7;
      }

      .st13 {
        fill: #00d6b9;
      }

      .st14 {
        fill: url(#_未命名的渐变_2);
      }
    </style><radialGradient
       id="_未命名的渐变"
       data-name="未命名的渐变"
       cx="123.9"
       cy="-40.2"
       fx="123.9"
       fy="-40.2"
       r="59.4"
       gradientTransform="translate(-26.8 25.5) scale(.6 -.7)"
       gradientUnits="userSpaceOnUse"><stop
         offset="0"
         stop-color="#db202e"
         id="stop1" /><stop
         offset="1"
         stop-color="#e01b24"
         id="stop2" /></radialGradient><radialGradient
       id="_未命名的渐变_2"
       data-name="未命名的渐变 2"
       cx="67.6"
       cy="26.8"
       fx="67.6"
       fy="26.8"
       r="105.2"
       gradientTransform="translate(-26.6 25.3) scale(.6 -.7)"
       gradientUnits="userSpaceOnUse"><stop
         offset="0"
         stop-color="#ffb648"
         id="stop3" /><stop
         offset="1"
         stop-color="#ff7800"
         stop-opacity="0"
         id="stop4" /></radialGradient><radialGradient
       id="_未命名的渐变_3"
       data-name="未命名的渐变 3"
       cx="61.7"
       cy="18.6"
       fx="61.7"
       fy="18.6"
       r="68"
       gradientTransform="translate(-26.8 25.8) scale(.6 -.7)"
       gradientUnits="userSpaceOnUse"><stop
         offset="0"
         stop-color="#c64600"
         id="stop5" /><stop
         offset="1"
         stop-color="#a51d2d"
         id="stop6" /></radialGradient></defs><path
     class="st1"
     d="M47.5,64.1H13.8c-7.6,0-13.8-6.3-13.8-13.8V13.7C0,6.2,6.2,0,13.7,0h36.6c7.5,0,13.7,6.2,13.7,13.7v36.6c0,7.5-6.2,13.7-13.7,13.7h-2.9.1Z"
     id="path6"
     style="fill:#2baee1;fill-opacity:1" /><g
     id="g52"
     transform="matrix(1.1457618,0,0,1.1390537,-4.6052284,-4.4979894)"><path
       style="opacity:0.2"
       d="m 35.063836,19.000002 c -3.410058,0 -6.363298,1.929396 -7.827132,4.72974 -0.948768,-0.595626 -2.071906,-0.94593 -3.27926,-0.94593 -3.384202,0 -6.127646,2.710438 -6.127646,6.05405 0,0.531582 0.08514,1.045876 0.215416,1.537124 C 15.601038,32.003728 14,34.774596 14,37.918884 14,42.949796 18.099404,47 23.191488,47 H 40.808522 C 45.900606,47 50,42.949796 50,37.918884 c 0,-4.017388 -2.625044,-7.404426 -6.271284,-8.608102 0.0989,-0.522122 0.14364,-1.05755 0.14364,-1.60805 C 43.872356,22.89631 39.92866,19 35.063852,19 Z"
       id="path4" /><path
       style="fill:#ffffff"
       d="m 35.063836,18.000002 c -3.410058,0 -6.363298,1.929396 -7.827132,4.72974 -0.948768,-0.595626 -2.071906,-0.94593 -3.27926,-0.94593 -3.384202,0 -6.127646,2.710438 -6.127646,6.05405 0,0.531582 0.08514,1.045876 0.215416,1.537124 C 15.601038,31.003728 14,33.774596 14,36.918884 14,41.949796 18.099404,46 23.191488,46 H 40.808522 C 45.900606,46 50,41.949796 50,36.918884 c 0,-4.017388 -2.625044,-7.404426 -6.271284,-8.608102 0.0989,-0.522122 0.14364,-1.05755 0.14364,-1.60805 C 43.872356,21.89631 39.92866,18 35.063852,18 Z"
       id="path5" /></g></svg>
